assets/svg/music.svg

<?xml version="1.0" encoding="utf-8"?><!-- Uploaded to: SVG Repo, www.svgrepo.com, Generator: SVG Repo Mixer Tools -->
<svg width="800px" height="800px" viewBox="0 0 24 24" fill="none" xmlns="http://www.w3.org/2000/svg">
<path d="M9 19C9 20.1046 7.65685 21 6 21C4.34315 21 3 20.1046 3 19C3 17.8954 4.34315 17 6 17C7.65685 17 9 17.8954 9 19ZM9 19V5L21 3V17M21 17C21 18.1046 19.6569 19 18 19C16.3431 19 15 18.1046 15 17C15 15.8954 16.3431 15 18 15C19.6569 15 21 15.8954 21 17ZM9 9L21 7" stroke="#000000" stroke-width="2" stroke-linecap="round" stroke-linejoin="round"/>
</svg>

<svg xmlns="http://www.w3.org/2000/svg" width="800" height="800" fill="none" viewBox="0 0 24 24">
    <path stroke="#000" stroke-linecap="round" stroke-linejoin="round" stroke-width="2"
        d="M9 19c0 1.105-1.343 2-3 2s-3-.895-3-2 1.343-2 3-2 3 .895 3 2m0 0V5l12-2v14m0 0c0 1.105-1.343 2-3 2s-3-.895-3-2 1.343-2 3-2 3 .895 3 2M9 9l12-2" />
</svg>
